X:1
T:Poi ch'io non ho
T:Luca Marenzio
T:Source : Il terzo libro delle Villanelle a tre voci---Venetia---G.Vincenzi---1587. Editor : André Vierendeels (30/05/17).
T:Notes : Original clefs : C1, C2,  F4 Editorial accidentals above the staff m 8 in B : "B" notated as "D" in original print
T:Poi ch'io non ho
T:©
T:©
C:Luca Marenzio
Z:©
%%score [ 1 2 3 ]
L:1/8
Q:1/4=120
M:4/4
K:F
V:1 treble nm="Soprano 1" snm="S 1"
V:2 treble nm="Soprano 2" snm="S 2"
V:3 bass nm="Bass" snm="B"
V:1
"^1)" z2 A2 c4- | c2 d2 B2 c2 | d4 c2 B2- | B2 B2 A4- | A4 A4 | B3 B c2 d2- | d2 _e2 c4 | B8 :: %8
w: Poi ch'io|_ non ho Spe-|ran- za don-|* na'ho- ma-|* i,|d'es- ser piu sen-|* za gua-|i,|
w: Poi che|_ non ho Spe-|ran- za di|_ mi- ra-|* re,|piu le bel- lez-|* ze ra-|re,|
[M:6/4] A3 B c2 F3 F G2 | A12 | d3 e f2 B3 B c2 |[M:4/4] d6 B2 | A2 B2 c2 d2 | d8 | c8 | A4 z4 | %16
w: can- te- ro, can- te- r'ogn'|hor|can- te- ro, can- te- r'ogn'|hor, per|dis- fo- gar l'ar-|do-|re,|voi|
w: can- te- ro, can- te- r'ogn'|hor|can- te- ro, can- te- r'ogn'|hor fin|che'ha- vro pol- fo'e|le-|na,|voi|
 c4 z2 G2 | B6 c2 | A8 | d2 d4 c2 | B4 A4 | G8 | F8 :| %23
w: voi voi|voi ben|mio|m'ha- ve- te|tolt' il|co-|re.|
w: voi voi|voi m'as-|con-|de'in- vi- dia'e|cru- del-|ta-|de.|
V:2
"^2)""^1)" z2 F2 A4- | A2 F2 G2 A2 | B4 A2 G2- | G2 G2 ^F4- | F4 ^F4 | G3 G F2 D2- | D2 B2 A4 | %7
w: Poi ch'io|_ non ho Spe-|ran- za don-|* na'ho- ma-|* i,|d'es- ser piu sen-|* za gua-|
w: Poi che|_ non ho Spe-|ran- za di|_ fi- ni-|* re,|il gra- vo mio|_ mar- ti-|
 B8 ::[M:6/4] z12 | D3 F E2 F3 G A2 | B3 A F2 G3 B A2 |[M:4/4] B6 F2 | F2 D2 A4 | =B2 c4 B2 | c8 | %15
w: i.||can- te- ro, can- te- ro,|can- te- ro, can- te- r'ogn'|hor, per|dis- fo- gar|l'ar- do- *|re,|
w: re,||can- te- ro, can- te- ro,|can- te- ro, can te- o|che se|l'al- ma fos-|se'u- sci- *|ta,|
 z4 A4 | z4 G4 | z2 D2 G2 G2 | D8 | B2 B4 A2 | F2 G2 A2 GF | E2 F4 E2 | F8 :| %23
w: voi|voi|voi voi ben|mio|m'ha- ve- te|tolt' il co- * *||re.|
w: voi|voi|voi voi spe-|ran-|za mi ter-|rest'- in vi- * *||ta.|
V:3
"^3)""^1)""^4)" F,4 F,4- | F,2 D,2 _E,2 F,2 | B,,4 F,,2 G,,2- | G,,2 G,,2 D,4- | D,4 D,4 | %5
w: Poi ch'io|_ non ho Spe-|ran- za don-|* na'ho- ma-|* i,|
w: E s'an-|* ci- der vo-|les- se'A- mor|_ il ri-|* o,|
 G,3 G, A,2 B,2- | B,2 _E,2 F,4 | B,,8 ::[M:6/4] F,3 G, A,2 B,3 A, G,2 | F,12 | %10
w: d'es- ser piu sen-|* za gua-|i,|can- te- ro, can- te- r'ogn'|hor|
w: al fi- ne lo|_ cor mi-|o,|can- te- ro, can- te- r'ogn'|hor|
 B,,3 C, D,2 _E,3 D, C,2 |[M:4/4] B,,4 B,4 | F,2 G,2 A,2 F,2 | G,8 | C,8 | z4 F,4 | z4 C,4 | %17
w: can- te- ro, can te- r'ogn'|hor, per|dis- fo- gar l'ar-|do-|re,|voi|voi|
w: can- te- ro, can- te- ro|che se|l'al- ma fos- se'u-|sci-|ta,|voi|voi|
 z2 G,2 _E,2 C,2 | D,8 | B,,2 B,,4 C,2 | D,2 E,2 F,2 E,D, | C,2 B,,2 C,4 | F,,8 :| %23
w: voi voi ben|mio|m'ha- ve- te|tolt' il co- * *||re.|
w: voi voi spe-|ran-|za mi ter-|rest' in vi- * *||ta|

